dist/img/more-arrow.svg

<svg width="13" height="22" viewBox="0 0 13 22" fill="none" xmlns="http://www.w3.org/2000/svg">
<path d="M12.6785 11.7851L2.78516 21.6751C2.35105 22.1082 1.64772 22.1082 1.21251 21.6751C0.778399 21.2421 0.778399 20.5388 1.21251 20.1058L10.3211 11.0005L1.21361 1.89522C0.779495 1.4622 0.779495 0.758873 1.21361 0.324761C1.64772 -0.108254 2.35214 -0.108254 2.78625 0.324761L12.6796 10.2147C13.107 10.6432 13.107 11.3576 12.6785 11.7851Z" fill="white"/>
</svg>

<svg width="13" height="22" fill="none" xmlns="http://www.w3.org/2000/svg"><path d="M12.678 11.785l-9.893 9.89a1.114 1.114 0 01-1.572 0 1.108 1.108 0 010-1.57l9.108-9.104-9.107-9.106a1.11 1.11 0 010-1.57 1.114 1.114 0 011.572 0l9.894 9.89a1.12 1.12 0 01-.002 1.57z" fill="#fff"/></svg>
